X: 15
T: Captain Campbell
R: strathspey
M: 4/4
L: 1/8
K: Ador
A>G | "Am"[E/A/][A3/A3/][A3/A3/]B/ "C"{cB}c>AB<G | "G"[D/G,/][G3/G,3/][G3/G,3/]A/ {A}B>d c/B/A/G/ | "Am"[E/A/][A3/A3/][A3/A3/]B/ "C"{cB}c>Bc<e | "G"d<B{ga}g>B "Am"{AB}[A2A2] A>G |
"Am"[E/A/][A3/A3/][A3/A3/]B/ "C"{cB}c>AB<G | "G"[D/G,/][G3/G,3/][G3/G,3/]A/ {A}B>d c/B/A/G/ | "Am"[E/A/][A3/A3/][A3/A3/]B/ "C"{cB}c>Bc<e | "G"d<B{ga}g>B "Am"{AB}[A2A2] A>B||
"Am"A<a{b}a>g "C"{ef}[e3/e3/]d/c<e | "G"{A/B/c/}d>e{a}g>e d/c/B/A/ G>B | "Am"A<a{b}a>g "C"{ef}[e3/e3/]d/c<e | "G"d<B{ga}g>B "Am"{AB}[A2A2] A>B |
"Am"A<a{b}a>g "C"{ef}[e3/e3/]d/c<e | "G"{A/B/c/}d>e{a}g>e d/c/B/A/ G>B | "Am"{cB}c>A"G"d>B "C"e>dc<e | "G"d<B{ga}g>B "Am"{AB}[A2A2] |]


Tune 1557	Setting 14958

